cssgg/add-r.svg

<svg
  width="24"
  height="24"
  viewBox="0 0 24 24"
  fill="none"
  xmlns="http://www.w3.org/2000/svg"
>
  <path
    d="M12 6C12.5523 6 13 6.44772 13 7V11H17C17.5523 11 18 11.4477 18 12C18 12.5523 17.5523 13 17 13H13V17C13 17.5523 12.5523 18 12 18C11.4477 18 11 17.5523 11 17V13H7C6.44772 13 6 12.5523 6 12C6 11.4477 6.44772 11 7 11H11V7C11 6.44772 11.4477 6 12 6Z"
    fill="currentColor"
  />
  <path
    fill-rule="evenodd"
    clip-rule="evenodd"
    d="M5 22C3.34315 22 2 20.6569 2 19V5C2 3.34315 3.34315 2 5 2H19C20.6569 2 22 3.34315 22 5V19C22 20.6569 20.6569 22 19 22H5ZM4 19C4 19.5523 4.44772 20 5 20H19C19.5523 20 20 19.5523 20 19V5C20 4.44772 19.5523 4 19 4H5C4.44772 4 4 4.44772 4 5V19Z"
    fill="currentColor"
  />
</svg>

<svg viewBox="0 0 24 24" xmlns="http://www.w3.org/2000/svg"><g><path d="M12 6c.55 0 1 .44 1 1v4h4c.55 0 1 .44 1 1 0 .55-.45 1-1 1h-4v4c0 .55-.45 1-1 1 -.56 0-1-.45-1-1v-4H7c-.56 0-1-.45-1-1 0-.56.44-1 1-1h4V7c0-.56.44-1 1-1Z"/><path fill-rule="evenodd" d="M5 22c-1.66 0-3-1.35-3-3V5c0-1.66 1.34-3 3-3h14c1.65 0 3 1.34 3 3v14c0 1.65-1.35 3-3 3H5Zm-1-3c0 .55.44 1 1 1h14c.55 0 1-.45 1-1V5c0-.56-.45-1-1-1H5c-.56 0-1 .44-1 1v14Z"/></g></svg>
